public/x-fan.svg

<svg width="180" height="180" xmlns="http://www.w3.org/2000/svg" xmlns:xlink="http://www.w3.org/1999/xlink"><defs><path id="a" d="M0 0H180V180H0z"/></defs><g fill="none" fill-rule="evenodd"><mask id="b" fill="#fff"><use xlink:href="#a"/></mask><use fill="#D8D8D8" fill-rule="nonzero" xlink:href="#a"/><path d="M92.1458449,68.4033908 L86.7161391,82.0977829 C82.4674079,79.2637357 79.1682149,77.1684279 76.818461,75.8117969 L79.4555916,85.6537022 L50.2303918,93.4845709 L48.7205842,87.8498923 C45.1362062,93.1049087 41.3456642,97.6904019 37.3488443,101.606509 L28.782971,90.3738521 C38.8505028,79.4628708 46.1781395,66.4410452 50.7661011,51.3079848 L64.8946981,51.1457769 C64.866188,52.4417917 64.5671202,53.7297607 63.9974855,55.0097225 C74.5841877,59.2590899 83.9668803,63.7236013 92.1458449,68.4033908 Z M74.5376194,74.8124851 C69.801446,72.1627299 64.7415856,69.7071282 59.3578865,67.4456062 C57.1867125,72.9661436 55.1093847,77.3341491 53.1258407,80.5497539 L74.5376194,74.8124851 Z M192.251111,148.998043 L186.178666,161.495764 C175.406003,158.155142 165.600698,153.615984 156.762456,147.878154 C152.067577,157.403219 146.197427,165.847355 139.151831,173.210813 L128.049197,164.832001 C135.478467,157.097327 141.462208,148.676436 146.0006,139.569077 C132.948107,126.3176 123.500876,109.792041 117.658623,89.9919068 L114.803719,90.7568759 L118.346734,103.979588 C126.748017,135.333601 128.22234,160.168868 122.769749,178.486132 L109.347845,174.674398 C110.082828,172.008073 110.713552,168.752385 111.240034,164.907234 L102.887805,173.103914 C101.028126,170.97178 99.4913984,169.343648 98.277576,168.219468 C88.1213651,177.597424 78.0792506,185.897918 68.1509314,193.1212 L59.3999324,182.099193 C61.3307577,179.48822 62.0076177,177.105914 61.4305328,174.952204 L41.9640804,102.302414 L89.9715422,89.4388536 L102.955887,137.89709 L68.3965253,147.157243 L74.838371,171.198538 C79.5105212,167.799347 84.3873739,163.862204 89.4690754,159.386992 C87.2784413,157.021443 84.9076286,154.78474 82.356566,152.676814 L92.3174234,144.773811 C98.9240641,150.196997 105.24088,156.341912 111.268062,163.20874 C113.308815,149.18766 111.235779,130.632511 105.048893,107.542734 L88.6423167,46.31256 L157.009751,27.9935613 L160.431981,40.7654995 L105.212131,55.5616138 L111.271492,78.1754574 L162.434374,64.4664045 C169.107292,91.7742166 169.140629,115.43883 162.534385,135.460956 C171.222368,141.239047 181.127844,145.751364 192.251111,148.998043 Z M152.293114,80.7116228 L130.130045,86.6501993 C135.125838,102.489922 142.220942,115.646458 151.415569,126.120203 C154.974,110.350405 155.266512,95.2143632 152.293114,80.7116228 Z M81.4004824,111.544138 L79.5887133,104.782523 L58.5525798,110.419138 L60.3643489,117.180753 L81.4004824,111.544138 Z M86.3123898,129.875625 L84.3194438,122.43785 L63.2833102,128.074465 L65.2762562,135.51224 L86.3123898,129.875625 Z" fill="#4D4D4D" mask="url(#b)"/></g></svg>

<svg width="180" height="180" xmlns="http://www.w3.org/2000/svg" xmlns:xlink="http://www.w3.org/1999/xlink"><defs><path id="a" d="M0 0h180v180H0z"/></defs><g fill="none" fill-rule="evenodd"><mask id="b" fill="#fff"><use xlink:href="#a"/></mask><use fill="#D8D8D8" fill-rule="nonzero" xlink:href="#a"/><path d="M92.146 68.403l-5.43 13.695c-4.249-2.834-7.548-4.93-9.898-6.286l2.638 9.842-29.226 7.83-1.51-5.634c-3.584 5.255-7.374 9.84-11.371 13.757l-8.566-11.233C38.851 79.463 46.178 66.44 50.766 51.308l14.129-.162c-.029 1.296-.328 2.584-.898 3.864 10.587 4.25 19.97 8.714 28.149 13.393zm-17.608 6.41c-4.737-2.65-9.796-5.106-15.18-7.367-2.171 5.52-4.249 9.888-6.232 13.104l21.412-5.738zm117.713 74.185l-6.072 12.498c-10.773-3.34-20.578-7.88-29.417-13.618-4.694 9.525-10.565 17.97-17.61 25.333l-11.103-8.379c7.43-7.735 13.413-16.156 17.952-25.263-13.053-13.251-22.5-29.777-28.342-49.577l-2.855.765 3.543 13.223c8.401 31.354 9.875 56.189 4.423 74.506l-13.422-3.812c.735-2.666 1.366-5.922 1.892-9.767l-8.352 8.197c-1.86-2.132-3.397-3.76-4.61-4.885-10.157 9.378-20.199 17.679-30.127 24.902L59.4 182.1c1.93-2.61 2.608-4.993 2.03-7.147l-19.466-72.65L89.972 89.44l12.984 48.458-34.56 9.26 6.442 24.042c4.673-3.4 9.55-7.337 14.631-11.812a73.392 73.392 0 0 0-7.112-6.71l9.96-7.903c6.607 5.423 12.924 11.568 18.951 18.435 2.04-14.021-.032-32.576-6.22-55.666l-16.406-61.23 68.368-18.32 3.422 12.772-55.22 14.797 6.06 22.613 51.162-13.709c6.673 27.308 6.707 50.973.1 70.995 8.688 5.778 18.594 10.29 29.717 13.537zm-39.958-68.286L130.13 86.65c4.996 15.84 12.09 28.996 21.286 39.47 3.558-15.77 3.85-30.906.877-45.408zM81.4 111.544l-1.811-6.761-21.036 5.636 1.811 6.762 21.036-5.637zm4.912 18.332l-1.993-7.438-21.036 5.636 1.993 7.438 21.036-5.636z" fill="#4D4D4D" mask="url(#b)"/></g></svg>
